X:020
T:Allegretto TS.020
M:2/4
L:1/16
Q:1/4=120
S:Thomas Sands’ MS,1810,Lincolnshire
R:air
C:Prefixed as ‘No.8′ in MS
O:England;Lincolnshire
Z:vmp.Ruairidh Greig, 2011
K:C
(cB)|c2e2c2e2|g6fe|fgag fedc|Bcdc BAGF|
E2G2c2e2|g6fe|(^ga)(fe) c2B2|(B4c2):|
|:”_p”(cd)|e2e2e2a2|e6e2|fedc B2e2|c2A2A2 cd|
e2a2e2a2|e4 fedc|dcBA ^G2e2|c2A2A2 “_f”(cB)|
c2e2 cdef|g6fe|a2f2d2c2|BcdB G2(GF)|
E2G2c2e2|g6(fe)|^gafd c2B2|(B4c2):|]

